src/assets/images/Usuario/metodosdepago/credit.svg

<?xml version="1.0" encoding="UTF-8"?>
<svg width="62px" height="62px" viewBox="0 0 62 62" version="1.1" xmlns="http://www.w3.org/2000/svg" xmlns:xlink="http://www.w3.org/1999/xlink">
    <!-- Generator: Sketch 52.4 (67378) - http://www.bohemiancoding.com/sketch -->
    <title>credit-card</title>
    <desc>Created with Sketch.</desc>
    <g id="Page-1" stroke="none" stroke-width="1" fill="none" fill-rule="evenodd">
        <g id="Metodos-de-pago" transform="translate(-514.000000, -1463.000000)" fill="#27D8DB">
            <g id="credit-card" transform="translate(514.000000, 1463.000000)">
                <path d="M60.3542296,21.2765222 L40.7217795,1.64343711 C39.6619667,0.583698096 38.2486812,0 36.7420324,0 C35.2355047,0 33.8220981,0.583455897 32.7622853,1.64319491 L1.64336368,32.7636281 C0.583672017,33.8234882 0,35.2367157 0,36.7434318 C0,38.250148 0.583672017,39.6636177 1.64336368,40.7232356 L4.06427052,43.1442506 C4.06451271,43.1443717 4.0646338,43.1446139 4.06487599,43.1448561 C4.06511818,43.1450983 4.06536037,43.1453405 4.06560256,43.1455827 L20.3357628,59.4164699 L18.0829341,59.4164699 C17.3696917,59.4164699 16.7913478,59.9947185 16.7913478,60.7081138 C16.7913478,61.4213881 17.3696917,61.9997578 18.0829341,61.9997578 L25.2503538,61.9997578 C25.2520491,61.9997578 25.2536234,61.9998789 25.2553187,61.9998789 C25.257014,61.9998789 25.2585882,61.9997578 25.2602835,61.9997578 L43.9151435,62 C44.6283859,62 45.2067298,61.4216303 45.2067298,60.708356 C45.2067298,59.9949607 44.6283859,59.4167121 43.9151435,59.4167121 L30.1753589,59.4164699 L60.3543507,29.2361297 C62.54857,27.0415702 62.54857,23.4708395 60.3542296,21.2765222 Z M58.527651,27.4094696 L27.4084872,58.5300238 C26.8377722,59.1006432 26.0748814,59.4152589 25.2600413,59.4164699 L25.2502327,59.4164699 C24.4356349,59.4151378 23.6729862,59.1006432 23.1025135,58.5300238 L6.80486494,42.231526 L36.6902043,12.3446092 C37.1945599,11.8402311 37.1945599,11.0223272 36.6902043,10.517949 C36.1857276,10.0135709 35.3681024,10.0135709 34.8635046,10.5180701 L4.97816528,40.4049869 L3.46982116,38.8965754 C2.89813743,38.3248662 2.5832936,37.5602459 2.5832936,36.7435529 C2.5832936,35.92686 2.89813743,35.1621186 3.46994225,34.5902882 L34.5888639,3.46997619 C35.1606687,2.89826691 35.925376,2.58340902 36.7420324,2.58340902 C37.5586889,2.58340902 38.3233961,2.89826691 38.8952009,3.47009729 L45.8826753,10.4577628 L15.9969727,40.3450428 C15.4926171,40.8492999 15.4926171,41.6672038 15.9969727,42.1718241 C16.249211,42.4239526 16.579797,42.5500169 16.9102619,42.5500169 C17.2407269,42.5500169 17.5713129,42.4238315 17.8235512,42.171703 L47.7092538,12.284544 L58.527651,23.1030613 C59.7147333,24.2903177 59.7146122,26.2222131 58.527651,27.4094696 Z" id="Shape" fill-rule="nonzero"></path>
                <path d="M32.6142441,37.3857287 C32.0998823,36.871362 31.2660358,36.8714855 30.7513035,37.3857287 L20.3857713,47.7512359 C19.8714096,48.2656025 19.8714096,49.0995805 20.3857713,49.6141941 C20.643014,49.8714392 20.9801587,50 21.3171799,50 C21.6542011,50 21.9913458,49.8713157 22.2485884,49.6141941 L32.6141206,39.248687 C33.1286059,38.7340733 33.1286059,37.9000954 32.6142441,37.3857287 Z" id="Path"></path>
                <path d="M27.7140916,46.3922541 L23.392174,50.7140167 C22.8692753,51.2368966 22.8692753,52.0848032 23.392174,52.6078087 C23.6536861,52.8691859 23.9964264,53 24.3390412,53 C24.681907,53 25.0243963,52.8691859 25.2859084,52.6078087 L29.607826,48.2860461 C30.1307247,47.7631662 30.1307247,46.9152596 29.607826,46.3922541 C29.0849273,45.8692486 28.2373669,45.8692486 27.7140916,46.3922541 Z" id="Path"></path>
                <path d="M30.8875562,43.3623645 L30.3625381,43.8872463 C29.8791733,44.3704764 29.8791733,45.1539704 30.362422,45.6374324 C30.6039884,45.8791055 30.9208557,46 31.2374909,46 C31.5541262,46 31.8708774,45.8791055 32.1124438,45.6374324 L32.6374619,45.1125506 C33.1208267,44.6293206 33.1208267,43.8458266 32.637578,43.3624805 C32.1545613,42.8792505 31.3708049,42.8791345 30.8875562,43.3623645 Z" id="Path"></path>
                <path d="M49.2150773,20.3551724 C48.9876983,20.1277893 48.6792586,20 48.357631,20 C48.0360034,20 47.7276775,20.1277893 47.5001847,20.3551724 L42.355166,25.5001705 C42.127787,25.7276674 42,26.0359989 42,26.3576323 C42,26.6792658 42.127787,26.987711 42.355166,27.2150941 L45.7851785,30.6448276 C46.0219938,30.8816471 46.3323661,31 46.6426248,31 C46.9531108,31 47.2632558,30.8815334 47.5000711,30.6448276 L52.6448624,25.5000568 C53.1183792,25.0265315 53.1183792,24.2586586 52.6448624,23.7851333 L49.2150773,20.3551724 Z M46.6425111,28.0725559 L44.9275049,26.3576323 L48.3575173,22.9276715 L50.0724099,24.6427088 L46.6425111,28.0725559 Z" id="Shape" fill-rule="nonzero"></path>
                <path d="M39.2375515,10 C39.5544157,10 39.8711639,9.87911482 40.1127279,9.63734447 L40.637741,9.11215523 C41.120869,8.62884655 41.120753,7.84529715 40.6373929,7.3622205 C40.1541489,6.87914385 39.3704001,6.87925986 38.8872721,7.36256854 L38.362259,7.88775778 C37.879131,8.37106646 37.879247,9.15461586 38.3626071,9.63769251 C38.6042871,9.87934685 38.9208033,10 39.2375515,10 Z" id="Path"></path>
                <path d="M12.8874461,43.362506 L12.362433,43.8874988 C11.879189,44.3706081 11.879189,45.1542106 12.362433,45.637668 C12.6041131,45.8792227 12.9208613,46 13.2374935,46 C13.5541257,46 13.8708739,45.8792227 14.1125539,45.637668 L14.637567,45.1126752 C15.120811,44.6293338 15.120811,43.8457314 14.637567,43.362506 C14.1542069,42.8791647 13.3708062,42.8791647 12.8874461,43.362506 Z" id="Path"></path>
            </g>
        </g>
    </g>
</svg>

<svg xmlns="http://www.w3.org/2000/svg" width="62" height="62"><title>credit-card</title><desc>Created with Sketch.</desc><g fill="none"><g fill="#27D8DB"><g><path id="Shape" fill-rule="nonzero" d="M60.35 21.28L40.72 1.64C39.66.58 38.25 0 36.74 0c-1.5 0-2.92.58-3.98 1.64L1.64 32.76C.58 33.82 0 35.24 0 36.74s.58 2.92 1.64 3.98l2.42 2.42 16.28 16.28h-2.26c-.7 0-1.3.57-1.3 1.3 0 .7.6 1.28 1.3 1.28H43.92c.7 0 1.3-.58 1.3-1.3 0-.7-.6-1.28-1.3-1.28H30.18l30.17-30.18c2.2-2.2 2.2-5.77 0-7.96zm-1.82 6.13L27.4 58.54c-.56.57-1.33.9-2.14.9-.82 0-1.6-.33-2.16-.9L6.8 42.23l29.9-29.9c.5-.5.5-1.3 0-1.8-.5-.52-1.33-.52-1.84 0L4.98 40.4l-1.5-1.5c-.58-.58-.9-1.34-.9-2.16 0-.8.32-1.58.9-2.15l31.1-31.13c.58-.57 1.35-.9 2.16-.9.82 0 1.58.33 2.16.9l6.98 7L16 40.34c-.5.5-.5 1.32 0 1.82.25.25.58.38.9.38.34 0 .67-.13.92-.38l29.9-29.9L58.5 23.1c1.2 1.2 1.2 3.12 0 4.3z"/><path id="Path" d="M32.6 37.4c-.5-.53-1.33-.53-1.85 0L20.4 47.74c-.53.52-.53 1.35 0 1.86.24.27.58.4.92.4.33 0 .67-.13.93-.4L32.6 39.26c.53-.52.53-1.35 0-1.86zM27.7 46.4l-4.3 4.3c-.53.54-.53 1.38 0 1.9.25.27.6.4.94.4.34 0 .68-.13.95-.4l4.3-4.3c.53-.54.53-1.38 0-1.9-.52-.53-1.36-.53-1.9 0zM30.9 43.36l-.54.53c-.48.47-.48 1.25 0 1.74.24.24.56.36.88.36.3 0 .63-.12.87-.36l.54-.53c.48-.47.48-1.25 0-1.74-.5-.48-1.27-.48-1.75 0z"/><path fill-rule="nonzero" d="M49.22 20.36c-.23-.23-.54-.36-.86-.36-.32 0-.63.13-.86.36l-5.14 5.14c-.23.23-.36.54-.36.86 0 .32.13.63.36.86l3.43 3.42c.22.24.53.36.84.36.3 0 .62-.12.86-.36l5.14-5.14c.48-.47.48-1.24 0-1.7l-3.42-3.44zm-2.58 7.7l-1.7-1.7 3.42-3.43 1.7 1.7-3.42 3.44z"/><path d="M39.24 10c.3 0 .63-.12.87-.36l.54-.53c.48-.47.48-1.25 0-1.74-.5-.48-1.27-.48-1.75 0l-.54.53c-.48.47-.48 1.25 0 1.74.24.24.56.36.88.36zM12.9 43.36l-.54.53c-.48.47-.48 1.25 0 1.74.24.24.56.36.88.36.3 0 .63-.12.87-.36l.54-.53c.48-.47.48-1.25 0-1.74-.5-.48-1.27-.48-1.75 0z"/></g></g></g></svg>
